flaticon/sewing/sewing-thimble.svg

<svg xmlns="http://www.w3.org/2000/svg" width="32" height="32" viewBox="0 0 24 24">
    <path d="M 22.355469 20.03125 L 19.679688 3.320312 C 19.359375 1.398438 17.71875 0 15.800781 0 L 8.199219 0 C 6.28125 0 4.640625 1.398438 4.320312 3.320312 L 1.644531 20.03125 C 0.699219 20.195312 0 21.003906 0 22 C 0 23.121094 0.878906 24 2 24 L 22 24 C 23.121094 24 24 23.121094 24 22 C 24 21.003906 23.300781 20.195312 22.355469 20.03125 Z M 3.222656 15.34375 C 3.273438 15.5 3.414062 15.601562 3.601562 15.601562 C 3.839844 15.601562 4 15.441406 4 15.199219 C 4 14.960938 3.839844 14.800781 3.601562 14.800781 C 3.464844 14.800781 3.359375 14.851562 3.289062 14.933594 L 5.121094 3.441406 C 5.351562 1.984375 6.53125 0.898438 8 0.808594 C 8.003906 1.042969 8.164062 1.199219 8.398438 1.199219 C 8.640625 1.199219 8.800781 1.039062 8.800781 0.800781 L 10.398438 0.800781 C 10.398438 1.039062 10.558594 1.199219 10.800781 1.199219 C 11.039062 1.199219 11.199219 1.039062 11.199219 0.800781 L 12.800781 0.800781 C 12.800781 1.039062 12.960938 1.199219 13.199219 1.199219 C 13.441406 1.199219 13.601562 1.039062 13.601562 0.800781 L 15.199219 0.800781 C 15.199219 1.039062 15.359375 1.199219 15.601562 1.199219 C 15.835938 1.199219 15.996094 1.042969 16 0.808594 C 17.433594 0.898438 18.648438 1.988281 18.878906 3.441406 L 20.75 14.988281 C 20.683594 14.871094 20.558594 14.800781 20.398438 14.800781 C 20.160156 14.800781 20 14.960938 20 15.199219 C 20 15.441406 20.160156 15.601562 20.398438 15.601562 C 20.617188 15.601562 20.765625 15.472656 20.792969 15.269531 L 21.558594 20 L 2.480469 20 Z M 22 23.199219 L 2 23.199219 C 1.320312 23.199219 0.800781 22.679688 0.800781 22 C 0.800781 21.320312 1.320312 20.800781 2 20.800781 L 22 20.800781 C 22.679688 20.800781 23.199219 21.320312 23.199219 22 C 23.199219 22.679688 22.679688 23.199219 22 23.199219 Z M 22 23.199219"/>
    <path d="M9.601562 3.601562C9.839844 3.601562 10 3.441406 10 3.199219 10 2.960938 9.839844 2.800781 9.601562 2.800781 9.359375 2.800781 9.199219 2.960938 9.199219 3.199219 9.199219 3.441406 9.359375 3.601562 9.601562 3.601562zM10.800781 6C11.039062 6 11.199219 5.839844 11.199219 5.601562 11.199219 5.359375 11.039062 5.199219 10.800781 5.199219 10.558594 5.199219 10.398438 5.359375 10.398438 5.601562 10.398438 5.839844 10.558594 6 10.800781 6zM12 3.601562C12.238281 3.601562 12.398438 3.441406 12.398438 3.199219 12.398438 2.960938 12.238281 2.800781 12 2.800781 11.761719 2.800781 11.601562 2.960938 11.601562 3.199219 11.601562 3.441406 11.761719 3.601562 12 3.601562zM7.199219 3.601562C7.441406 3.601562 7.601562 3.441406 7.601562 3.199219 7.601562 2.960938 7.441406 2.800781 7.199219 2.800781 6.960938 2.800781 6.800781 2.960938 6.800781 3.199219 6.800781 3.441406 6.960938 3.601562 7.199219 3.601562zM8.398438 6C8.640625 6 8.800781 5.839844 8.800781 5.601562 8.800781 5.359375 8.640625 5.199219 8.398438 5.199219 8.160156 5.199219 8 5.359375 8 5.601562 8 5.839844 8.160156 6 8.398438 6zM6 6C6.238281 6 6.398438 5.839844 6.398438 5.601562 6.398438 5.359375 6.238281 5.199219 6 5.199219 5.761719 5.199219 5.601562 5.359375 5.601562 5.601562 5.601562 5.839844 5.761719 6 6 6zM13.199219 6C13.441406 6 13.601562 5.839844 13.601562 5.601562 13.601562 5.359375 13.441406 5.199219 13.199219 5.199219 12.960938 5.199219 12.800781 5.359375 12.800781 5.601562 12.800781 5.839844 12.960938 6 13.199219 6zM14.398438 3.601562C14.640625 3.601562 14.800781 3.441406 14.800781 3.199219 14.800781 2.960938 14.640625 2.800781 14.398438 2.800781 14.160156 2.800781 14 2.960938 14 3.199219 14 3.441406 14.160156 3.601562 14.398438 3.601562zM16.800781 3.601562C17.039062 3.601562 17.199219 3.441406 17.199219 3.199219 17.199219 2.960938 17.039062 2.800781 16.800781 2.800781 16.558594 2.800781 16.398438 2.960938 16.398438 3.199219 16.398438 3.441406 16.558594 3.601562 16.800781 3.601562zM9.601562 8.398438C9.839844 8.398438 10 8.238281 10 8 10 7.761719 9.839844 7.601562 9.601562 7.601562 9.359375 7.601562 9.199219 7.761719 9.199219 8 9.199219 8.238281 9.359375 8.398438 9.601562 8.398438zM12 8.398438C12.238281 8.398438 12.398438 8.238281 12.398438 8 12.398438 7.761719 12.238281 7.601562 12 7.601562 11.761719 7.601562 11.601562 7.761719 11.601562 8 11.601562 8.238281 11.761719 8.398438 12 8.398438zM7.199219 8.398438C7.441406 8.398438 7.601562 8.238281 7.601562 8 7.601562 7.761719 7.441406 7.601562 7.199219 7.601562 6.960938 7.601562 6.800781 7.761719 6.800781 8 6.800781 8.238281 6.960938 8.398438 7.199219 8.398438zM14.398438 8.398438C14.640625 8.398438 14.800781 8.238281 14.800781 8 14.800781 7.761719 14.640625 7.601562 14.398438 7.601562 14.160156 7.601562 14 7.761719 14 8 14 8.238281 14.160156 8.398438 14.398438 8.398438zM16.800781 8.398438C17.039062 8.398438 17.199219 8.238281 17.199219 8 17.199219 7.761719 17.039062 7.601562 16.800781 7.601562 16.558594 7.601562 16.398438 7.761719 16.398438 8 16.398438 8.238281 16.558594 8.398438 16.800781 8.398438zM15.601562 6C15.839844 6 16 5.839844 16 5.601562 16 5.359375 15.839844 5.199219 15.601562 5.199219 15.359375 5.199219 15.199219 5.359375 15.199219 5.601562 15.199219 5.839844 15.359375 6 15.601562 6zM18 6C18.238281 6 18.398438 5.839844 18.398438 5.601562 18.398438 5.359375 18.238281 5.199219 18 5.199219 17.761719 5.199219 17.601562 5.359375 17.601562 5.601562 17.601562 5.839844 17.761719 6 18 6zM10.800781 10.800781C11.039062 10.800781 11.199219 10.640625 11.199219 10.398438 11.199219 10.160156 11.039062 10 10.800781 10 10.558594 10 10.398438 10.160156 10.398438 10.398438 10.398438 10.640625 10.558594 10.800781 10.800781 10.800781zM8.398438 10.800781C8.640625 10.800781 8.800781 10.640625 8.800781 10.398438 8.800781 10.160156 8.640625 10 8.398438 10 8.160156 10 8 10.160156 8 10.398438 8 10.640625 8.160156 10.800781 8.398438 10.800781zM6 10.800781C6.238281 10.800781 6.398438 10.640625 6.398438 10.398438 6.398438 10.160156 6.238281 10 6 10 5.761719 10 5.601562 10.160156 5.601562 10.398438 5.601562 10.640625 5.761719 10.800781 6 10.800781zM13.199219 10.800781C13.441406 10.800781 13.601562 10.640625 13.601562 10.398438 13.601562 10.160156 13.441406 10 13.199219 10 12.960938 10 12.800781 10.160156 12.800781 10.398438 12.800781 10.640625 12.960938 10.800781 13.199219 10.800781zM9.601562 13.199219C9.839844 13.199219 10 13.039062 10 12.800781 10 12.558594 9.839844 12.398438 9.601562 12.398438 9.359375 12.398438 9.199219 12.558594 9.199219 12.800781 9.199219 13.039062 9.359375 13.199219 9.601562 13.199219zM12 13.199219C12.238281 13.199219 12.398438 13.039062 12.398438 12.800781 12.398438 12.558594 12.238281 12.398438 12 12.398438 11.761719 12.398438 11.601562 12.558594 11.601562 12.800781 11.601562 13.039062 11.761719 13.199219 12 13.199219zM7.199219 13.199219C7.441406 13.199219 7.601562 13.039062 7.601562 12.800781 7.601562 12.558594 7.441406 12.398438 7.199219 12.398438 6.960938 12.398438 6.800781 12.558594 6.800781 12.800781 6.800781 13.039062 6.960938 13.199219 7.199219 13.199219zM14.398438 13.199219C14.640625 13.199219 14.800781 13.039062 14.800781 12.800781 14.800781 12.558594 14.640625 12.398438 14.398438 12.398438 14.160156 12.398438 14 12.558594 14 12.800781 14 13.039062 14.160156 13.199219 14.398438 13.199219zM16.800781 13.199219C17.039062 13.199219 17.199219 13.039062 17.199219 12.800781 17.199219 12.558594 17.039062 12.398438 16.800781 12.398438 16.558594 12.398438 16.398438 12.558594 16.398438 12.800781 16.398438 13.039062 16.558594 13.199219 16.800781 13.199219zM15.601562 10.800781C15.839844 10.800781 16 10.640625 16 10.398438 16 10.160156 15.839844 10 15.601562 10 15.359375 10 15.199219 10.160156 15.199219 10.398438 15.199219 10.640625 15.359375 10.800781 15.601562 10.800781zM18 10.800781C18.238281 10.800781 18.398438 10.640625 18.398438 10.398438 18.398438 10.160156 18.238281 10 18 10 17.761719 10 17.601562 10.160156 17.601562 10.398438 17.601562 10.640625 17.761719 10.800781 18 10.800781zM10.800781 15.601562C11.039062 15.601562 11.199219 15.441406 11.199219 15.199219 11.199219 14.960938 11.039062 14.800781 10.800781 14.800781 10.558594 14.800781 10.398438 14.960938 10.398438 15.199219 10.398438 15.441406 10.558594 15.601562 10.800781 15.601562zM8.398438 15.601562C8.640625 15.601562 8.800781 15.441406 8.800781 15.199219 8.800781 14.960938 8.640625 14.800781 8.398438 14.800781 8.160156 14.800781 8 14.960938 8 15.199219 8 15.441406 8.160156 15.601562 8.398438 15.601562zM6 15.601562C6.238281 15.601562 6.398438 15.441406 6.398438 15.199219 6.398438 14.960938 6.238281 14.800781 6 14.800781 5.761719 14.800781 5.601562 14.960938 5.601562 15.199219 5.601562 15.441406 5.761719 15.601562 6 15.601562zM13.199219 15.601562C13.441406 15.601562 13.601562 15.441406 13.601562 15.199219 13.601562 14.960938 13.441406 14.800781 13.199219 14.800781 12.960938 14.800781 12.800781 14.960938 12.800781 15.199219 12.800781 15.441406 12.960938 15.601562 13.199219 15.601562zM9.601562 18C9.839844 18 10 17.839844 10 17.601562 10 17.359375 9.839844 17.199219 9.601562 17.199219 9.359375 17.199219 9.199219 17.359375 9.199219 17.601562 9.199219 17.839844 9.359375 18 9.601562 18zM12 18C12.238281 18 12.398438 17.839844 12.398438 17.601562 12.398438 17.359375 12.238281 17.199219 12 17.199219 11.761719 17.199219 11.601562 17.359375 11.601562 17.601562 11.601562 17.839844 11.761719 18 12 18zM7.199219 18C7.441406 18 7.601562 17.839844 7.601562 17.601562 7.601562 17.359375 7.441406 17.199219 7.199219 17.199219 6.960938 17.199219 6.800781 17.359375 6.800781 17.601562 6.800781 17.839844 6.960938 18 7.199219 18zM4.800781 8.398438C5.039062 8.398438 5.199219 8.238281 5.199219 8 5.199219 7.761719 5.039062 7.601562 4.800781 7.601562 4.558594 7.601562 4.398438 7.761719 4.398438 8 4.398438 8.238281 4.558594 8.398438 4.800781 8.398438zM4.800781 13.199219C5.039062 13.199219 5.199219 13.039062 5.199219 12.800781 5.199219 12.558594 5.039062 12.398438 4.800781 12.398438 4.558594 12.398438 4.398438 12.558594 4.398438 12.800781 4.398438 13.039062 4.558594 13.199219 4.800781 13.199219zM4.800781 18C5.039062 18 5.199219 17.839844 5.199219 17.601562 5.199219 17.359375 5.039062 17.199219 4.800781 17.199219 4.558594 17.199219 4.398438 17.359375 4.398438 17.601562 4.398438 17.839844 4.558594 18 4.800781 18zM14.398438 18C14.640625 18 14.800781 17.839844 14.800781 17.601562 14.800781 17.359375 14.640625 17.199219 14.398438 17.199219 14.160156 17.199219 14 17.359375 14 17.601562 14 17.839844 14.160156 18 14.398438 18zM16.800781 18C17.039062 18 17.199219 17.839844 17.199219 17.601562 17.199219 17.359375 17.039062 17.199219 16.800781 17.199219 16.558594 17.199219 16.398438 17.359375 16.398438 17.601562 16.398438 17.839844 16.558594 18 16.800781 18zM19.199219 8.398438C19.441406 8.398438 19.601562 8.238281 19.601562 8 19.601562 7.761719 19.441406 7.601562 19.199219 7.601562 18.960938 7.601562 18.800781 7.761719 18.800781 8 18.800781 8.238281 18.960938 8.398438 19.199219 8.398438zM19.199219 13.199219C19.441406 13.199219 19.601562 13.039062 19.601562 12.800781 19.601562 12.558594 19.441406 12.398438 19.199219 12.398438 18.960938 12.398438 18.800781 12.558594 18.800781 12.800781 18.800781 13.039062 18.960938 13.199219 19.199219 13.199219zM19.199219 18C19.441406 18 19.601562 17.839844 19.601562 17.601562 19.601562 17.359375 19.441406 17.199219 19.199219 17.199219 18.960938 17.199219 18.800781 17.359375 18.800781 17.601562 18.800781 17.839844 18.960938 18 19.199219 18zM15.601562 15.601562C15.839844 15.601562 16 15.441406 16 15.199219 16 14.960938 15.839844 14.800781 15.601562 14.800781 15.359375 14.800781 15.199219 14.960938 15.199219 15.199219 15.199219 15.441406 15.359375 15.601562 15.601562 15.601562zM18 15.601562C18.238281 15.601562 18.398438 15.441406 18.398438 15.199219 18.398438 14.960938 18.238281 14.800781 18 14.800781 17.761719 14.800781 17.601562 14.960938 17.601562 15.199219 17.601562 15.441406 17.761719 15.601562 18 15.601562zM11.199219 19.601562C11.199219 19.359375 11.039062 19.199219 10.800781 19.199219 10.558594 19.199219 10.398438 19.359375 10.398438 19.601562 10.398438 19.839844 10.558594 20 10.800781 20 11.039062 20 11.199219 19.839844 11.199219 19.601562zM8.800781 19.601562C8.800781 19.359375 8.640625 19.199219 8.398438 19.199219 8.160156 19.199219 8 19.359375 8 19.601562 8 19.839844 8.160156 20 8.398438 20 8.640625 20 8.800781 19.839844 8.800781 19.601562zM6.398438 19.601562C6.398438 19.359375 6.238281 19.199219 6 19.199219 5.761719 19.199219 5.601562 19.359375 5.601562 19.601562 5.601562 19.839844 5.761719 20 6 20 6.238281 20 6.398438 19.839844 6.398438 19.601562zM4 19.601562C4 19.359375 3.839844 19.199219 3.601562 19.199219 3.359375 19.199219 3.199219 19.359375 3.199219 19.601562 3.199219 19.839844 3.359375 20 3.601562 20 3.839844 20 4 19.839844 4 19.601562zM13.601562 19.601562C13.601562 19.359375 13.441406 19.199219 13.199219 19.199219 12.960938 19.199219 12.800781 19.359375 12.800781 19.601562 12.800781 19.839844 12.960938 20 13.199219 20 13.441406 20 13.601562 19.839844 13.601562 19.601562zM16 19.601562C16 19.359375 15.839844 19.199219 15.601562 19.199219 15.359375 19.199219 15.199219 19.359375 15.199219 19.601562 15.199219 19.839844 15.359375 20 15.601562 20 15.839844 20 16 19.839844 16 19.601562zM18.398438 19.601562C18.398438 19.359375 18.238281 19.199219 18 19.199219 17.761719 19.199219 17.601562 19.359375 17.601562 19.601562 17.601562 19.839844 17.761719 20 18 20 18.238281 20 18.398438 19.839844 18.398438 19.601562zM20.800781 19.601562C20.800781 19.359375 20.640625 19.199219 20.398438 19.199219 20.160156 19.199219 20 19.359375 20 19.601562 20 19.839844 20.160156 20 20.398438 20 20.640625 20 20.800781 19.839844 20.800781 19.601562zM20.800781 19.601562"/>
</svg>

<svg xmlns="http://www.w3.org/2000/svg" width="32" height="32" viewBox="0 0 24 24">
    <path d="M22.355 20.031L19.68 3.321C19.36 1.397 17.719 0 15.8 0H8.2C6.28 0 4.64 1.398 4.32 3.32L1.645 20.031A1.978 1.978 0 0 0 0 22c0 1.121.879 2 2 2h20c1.121 0 2-.879 2-2 0-.996-.7-1.805-1.645-1.969zM3.223 15.344c.05.156.191.258.379.258.238 0 .398-.16.398-.403 0-.238-.16-.398-.398-.398a.396.396 0 0 0-.313.133L5.121 3.44A3.096 3.096 0 0 1 8 .81c.004.234.164.39.398.39.243 0 .403-.16.403-.398h1.597c0 .238.16.398.403.398.238 0 .398-.16.398-.398h1.602c0 .238.16.398.398.398.242 0 .403-.16.403-.398h1.597c0 .238.16.398.403.398.234 0 .394-.156.398-.39a3.131 3.131 0 0 1 2.879 2.632l1.871 11.547c-.066-.117-.191-.187-.352-.187-.238 0-.398.16-.398.398 0 .242.16.403.398.403.22 0 .368-.13.395-.332l.766 4.73H2.48zM22 23.199H2C1.32 23.2.8 22.68.8 22c0-.68.52-1.2 1.2-1.2h20c.68 0 1.2.52 1.2 1.2 0 .68-.52 1.2-1.2 1.2zm0 0"/>
    <path d="M9.602 3.602c.238 0 .398-.16.398-.403 0-.238-.16-.398-.398-.398-.243 0-.403.16-.403.398 0 .242.16.403.403.403zm0 0M10.8 6c.24 0 .4-.16.4-.398 0-.243-.16-.403-.4-.403-.241 0-.402.16-.402.403 0 .238.16.398.403.398zm0 0M12 3.602c.238 0 .398-.16.398-.403 0-.238-.16-.398-.398-.398-.238 0-.398.16-.398.398 0 .242.16.403.398.403zm0 0M7.2 3.602c.241 0 .402-.16.402-.403 0-.238-.16-.398-.403-.398-.238 0-.398.16-.398.398 0 .242.16.403.398.403zm0 0M8.398 6c.243 0 .403-.16.403-.398 0-.243-.16-.403-.403-.403-.238 0-.398.16-.398.403 0 .238.16.398.398.398zm0 0M6 6c.238 0 .398-.16.398-.398 0-.243-.16-.403-.398-.403-.238 0-.398.16-.398.403 0 .238.16.398.398.398zm0 0M13.2 6c.241 0 .402-.16.402-.398 0-.243-.16-.403-.403-.403-.238 0-.398.16-.398.403 0 .238.16.398.398.398zm0 0M14.398 3.602c.243 0 .403-.16.403-.403 0-.238-.16-.398-.403-.398-.238 0-.398.16-.398.398 0 .242.16.403.398.403zm0 0M16.8 3.602c.24 0 .4-.16.4-.403 0-.238-.16-.398-.4-.398-.241 0-.402.16-.402.398 0 .242.16.403.403.403zm0 0M9.602 8.398c.238 0 .398-.16.398-.398 0-.238-.16-.398-.398-.398-.243 0-.403.16-.403.398 0 .238.16.398.403.398zm0 0M12 8.398c.238 0 .398-.16.398-.398 0-.238-.16-.398-.398-.398-.238 0-.398.16-.398.398 0 .238.16.398.398.398zm0 0M7.2 8.398c.241 0 .402-.16.402-.398 0-.238-.16-.398-.403-.398-.238 0-.398.16-.398.398 0 .238.16.398.398.398zm0 0M14.398 8.398c.243 0 .403-.16.403-.398 0-.238-.16-.398-.403-.398-.238 0-.398.16-.398.398 0 .238.16.398.398.398zm0 0M16.8 8.398c.24 0 .4-.16.4-.398 0-.238-.16-.398-.4-.398-.241 0-.402.16-.402.398 0 .238.16.398.403.398zm0 0M15.602 6c.238 0 .398-.16.398-.398 0-.243-.16-.403-.398-.403-.243 0-.403.16-.403.403 0 .238.16.398.403.398zm0 0M18 6c.238 0 .398-.16.398-.398 0-.243-.16-.403-.398-.403-.238 0-.398.16-.398.403 0 .238.16.398.398.398zm0 0M10.8 10.8c.24 0 .4-.16.4-.402 0-.238-.16-.398-.4-.398-.241 0-.402.16-.402.398 0 .243.16.403.403.403zm0 0M8.398 10.8c.243 0 .403-.16.403-.402 0-.238-.16-.398-.403-.398-.238 0-.398.16-.398.398 0 .243.16.403.398.403zm0 0M6 10.8c.238 0 .398-.16.398-.402 0-.238-.16-.398-.398-.398-.238 0-.398.16-.398.398 0 .243.16.403.398.403zm0 0M13.2 10.8c.241 0 .402-.16.402-.402 0-.238-.16-.398-.403-.398-.238 0-.398.16-.398.398 0 .243.16.403.398.403zm0 0M9.602 13.2c.238 0 .398-.16.398-.4 0-.241-.16-.402-.398-.402-.243 0-.403.16-.403.403 0 .238.16.398.403.398zm0 0M12 13.2c.238 0 .398-.16.398-.4 0-.241-.16-.402-.398-.402-.238 0-.398.16-.398.403 0 .238.16.398.398.398zm0 0M7.2 13.2c.241 0 .402-.16.402-.4 0-.241-.16-.402-.403-.402-.238 0-.398.16-.398.403 0 .238.16.398.398.398zm0 0M14.398 13.2c.243 0 .403-.16.403-.4 0-.241-.16-.402-.403-.402-.238 0-.398.16-.398.403 0 .238.16.398.398.398zm0 0M16.8 13.2c.24 0 .4-.16.4-.4 0-.241-.16-.402-.4-.402-.241 0-.402.16-.402.403 0 .238.16.398.403.398zm0 0M15.602 10.8c.238 0 .398-.16.398-.402 0-.238-.16-.398-.398-.398-.243 0-.403.16-.403.398 0 .243.16.403.403.403zm0 0M18 10.8c.238 0 .398-.16.398-.402 0-.238-.16-.398-.398-.398-.238 0-.398.16-.398.398 0 .243.16.403.398.403zm0 0M10.8 15.602c.24 0 .4-.16.4-.403 0-.238-.16-.398-.4-.398-.241 0-.402.16-.402.398 0 .242.16.403.403.403zm0 0M8.398 15.602c.243 0 .403-.16.403-.403 0-.238-.16-.398-.403-.398-.238 0-.398.16-.398.398 0 .242.16.403.398.403zm0 0M6 15.602c.238 0 .398-.16.398-.403 0-.238-.16-.398-.398-.398-.238 0-.398.16-.398.398 0 .242.16.403.398.403zm0 0M13.2 15.602c.241 0 .402-.16.402-.403 0-.238-.16-.398-.403-.398-.238 0-.398.16-.398.398 0 .242.16.403.398.403zm0 0M9.602 18c.238 0 .398-.16.398-.398 0-.243-.16-.403-.398-.403-.243 0-.403.16-.403.403 0 .238.16.398.403.398zm0 0M12 18c.238 0 .398-.16.398-.398 0-.243-.16-.403-.398-.403-.238 0-.398.16-.398.403 0 .238.16.398.398.398zm0 0M7.2 18c.241 0 .402-.16.402-.398 0-.243-.16-.403-.403-.403-.238 0-.398.16-.398.403 0 .238.16.398.398.398zm0 0M4.8 8.398c.24 0 .4-.16.4-.398 0-.238-.16-.398-.4-.398-.241 0-.402.16-.402.398 0 .238.16.398.403.398zm0 0M4.8 13.2c.24 0 .4-.16.4-.4 0-.241-.16-.402-.4-.402-.241 0-.402.16-.402.403 0 .238.16.398.403.398zm0 0M4.8 18c.24 0 .4-.16.4-.398 0-.243-.16-.403-.4-.403-.241 0-.402.16-.402.403 0 .238.16.398.403.398zm0 0M14.398 18c.243 0 .403-.16.403-.398 0-.243-.16-.403-.403-.403-.238 0-.398.16-.398.403 0 .238.16.398.398.398zm0 0M16.8 18c.24 0 .4-.16.4-.398 0-.243-.16-.403-.4-.403-.241 0-.402.16-.402.403 0 .238.16.398.403.398zm0 0M19.2 8.398c.241 0 .402-.16.402-.398 0-.238-.16-.398-.403-.398-.238 0-.398.16-.398.398 0 .238.16.398.398.398zm0 0M19.2 13.2c.241 0 .402-.16.402-.4 0-.241-.16-.402-.403-.402-.238 0-.398.16-.398.403 0 .238.16.398.398.398zm0 0M19.2 18c.241 0 .402-.16.402-.398 0-.243-.16-.403-.403-.403-.238 0-.398.16-.398.403 0 .238.16.398.398.398zm0 0M15.602 15.602c.238 0 .398-.16.398-.403 0-.238-.16-.398-.398-.398-.243 0-.403.16-.403.398 0 .242.16.403.403.403zm0 0M18 15.602c.238 0 .398-.16.398-.403 0-.238-.16-.398-.398-.398-.238 0-.398.16-.398.398 0 .242.16.403.398.403zm0 0M11.2 19.602c0-.243-.16-.403-.4-.403-.241 0-.402.16-.402.403 0 .238.16.398.403.398.238 0 .398-.16.398-.398zm0 0M8.8 19.602c0-.243-.16-.403-.402-.403-.238 0-.398.16-.398.403 0 .238.16.398.398.398.243 0 .403-.16.403-.398zm0 0M6.398 19.602c0-.243-.16-.403-.398-.403-.238 0-.398.16-.398.403 0 .238.16.398.398.398.238 0 .398-.16.398-.398zm0 0M4 19.602c0-.243-.16-.403-.398-.403-.243 0-.403.16-.403.403 0 .238.16.398.403.398.238 0 .398-.16.398-.398zm0 0M13.602 19.602c0-.243-.16-.403-.403-.403-.238 0-.398.16-.398.403 0 .238.16.398.398.398.242 0 .403-.16.403-.398zm0 0M16 19.602c0-.243-.16-.403-.398-.403-.243 0-.403.16-.403.403 0 .238.16.398.403.398.238 0 .398-.16.398-.398zm0 0M18.398 19.602c0-.243-.16-.403-.398-.403-.238 0-.398.16-.398.403 0 .238.16.398.398.398.238 0 .398-.16.398-.398zm0 0M20.8 19.602c0-.243-.16-.403-.402-.403-.238 0-.398.16-.398.403 0 .238.16.398.398.398.243 0 .403-.16.403-.398zm0 0"/>
</svg>
